X:1
T:Bread and Roses
M:4/4
L:1/4
K:G
 G3/4- A/4| B B B B| B2 A F/2G/2| A A G A| B3| G3/4- A/4| B B B B|\
 B2 AE/2-F/2| G E G A| B3| G3/4- A/4| B B B B| B A2 A/2B/2| c c c c|\
 c B2| E3/4 F/4| G E G A| B B B d| d A D d| d B2||
